docs/images/docsmith-logo.svg

<svg xmlns="http://www.w3.org/2000/svg" width="1536" height="512" viewBox="0 0 1536 512">
<path fill="#005EB8" opacity="1.000000" stroke="none" 
	d="
M1110.000000,513.000000 
	C740.045044,513.000000 370.590118,513.000000 1.067591,513.000000 
	C1.067591,342.399231 1.067591,171.798431 1.067591,1.098811 
	C513.000000,1.098811 1025.000000,1.098811 1536.973633,1.098811 
	C1536.973633,171.743332 1536.973633,342.371674 1536.973633,513.000000 
	C1394.798218,513.000000 1252.649170,513.000000 1110.000000,513.000000 
M814.383484,246.912933 
	C815.180298,246.695099 816.029785,246.589157 816.766296,246.243042 
	C833.863159,238.207932 850.938171,230.126297 868.046814,222.116486 
	C870.181458,221.117142 872.482117,220.472412 875.547729,219.357040 
	C875.547729,229.376938 875.547729,238.433792 875.547729,248.245422 
	C916.223694,231.942978 956.096008,215.962631 995.968323,199.982300 
	C995.893127,199.697144 995.817993,199.411972 995.742859,199.126816 
	C974.136292,198.470398 952.529785,197.813980 929.767395,197.122452 
	C944.891907,175.314575 959.221680,154.652573 973.551453,133.990555 
	C973.140869,133.504105 972.730225,133.017639 972.319641,132.531174 
	C950.094177,144.290909 927.868713,156.050629 905.643250,167.810349 
	C905.361694,167.400101 905.080139,166.989853 904.798645,166.579605 
	C911.099121,138.280670 917.399597,109.981728 923.700134,81.682793 
	C923.108887,81.511940 922.517639,81.341080 921.926453,81.170227 
	C898.382629,118.578033 874.838867,155.985840 850.664856,194.394974 
	C849.679016,191.884216 849.096680,190.749390 848.783020,189.544601 
	C847.080322,183.004135 845.474609,176.438324 843.752380,169.903168 
	C843.491089,168.911758 842.794495,168.035049 842.299255,167.105270 
	C841.549622,167.992249 840.465576,168.760635 840.102478,169.784668 
	C836.731018,179.293060 833.462952,188.838394 830.204895,198.386658 
	C824.653625,214.656128 819.131287,230.935471 813.703674,246.909027 
	C813.703674,246.909027 813.911682,247.179611 813.911682,247.179611 
	C813.911682,247.179611 813.588745,246.993958 814.383484,246.912933 
M924.499634,491.569153 
	C939.419617,491.569153 954.339600,491.569153 969.203613,491.569153 
	C969.203613,485.361816 969.203613,479.944000 969.203613,474.248322 
	C961.356445,474.248322 953.864197,474.436218 946.390930,474.142181 
	C943.913818,474.044708 940.990967,473.330902 939.111267,471.840424 
	C920.292297,456.917816 903.530029,440.020935 891.331177,419.132996 
	C887.123413,411.928101 883.884338,404.157501 879.670593,395.559418 
	C901.893677,395.559418 922.625183,395.559418 943.752075,395.559418 
	C943.752075,386.799042 943.881226,378.661957 943.684082,370.532776 
	C943.612305,367.573517 944.609985,365.922516 947.308228,364.838501 
	C951.908142,362.990448 956.739746,361.431671 960.902466,358.835144 
	C975.018555,350.030060 988.884277,340.823608 1003.239746,331.514893 
	C1001.171509,329.301666 1000.275024,328.087250 999.140198,327.166382 
	C984.373108,315.183563 968.398010,305.324188 949.825134,300.465881 
	C945.189575,299.253326 943.306335,297.435699 943.625610,292.427460 
	C944.108398,284.853271 943.751587,277.225555 943.751587,269.634796 
	C866.242981,269.634796 789.370117,269.634796 712.108643,269.634796 
	C712.108643,276.290131 712.108643,282.566833 712.108643,289.376282 
	C682.661804,289.376282 653.597595,289.376282 623.892090,289.376282 
	C624.528015,291.262695 624.694641,292.619263 625.372498,293.634491 
	C632.064392,303.656891 637.887390,314.463409 645.791931,323.429810 
	C662.371277,342.236481 683.301819,354.794098 707.640625,361.221436 
	C711.268433,362.179443 712.427917,363.550171 712.330261,367.213898 
	C712.083069,376.486450 712.248230,385.769989 712.248230,395.699921 
	C731.825378,395.699921 750.866699,395.699921 769.973145,395.699921 
	C769.973145,396.839996 770.124634,397.384552 769.949402,397.786682 
	C768.427246,401.279144 766.990173,404.819397 765.259949,408.208710 
	C753.420654,431.400574 737.010986,451.057190 718.169861,468.816132 
	C714.219910,472.539246 709.989868,474.998108 704.073669,474.377533 
	C698.381042,473.780396 692.576660,474.248413 686.777588,474.248413 
	C686.777588,480.361938 686.777588,485.764618 686.777588,491.569122 
	C765.915649,491.569122 844.707581,491.569122 924.499634,491.569153 
M691.086853,182.842697 
	C666.455261,193.851715 641.820007,204.852676 617.193115,215.872147 
	C594.982239,225.810516 572.770752,235.747589 550.580933,245.732803 
	C544.431458,248.500031 538.358215,251.436752 532.028748,254.399277 
	C536.125366,263.428650 539.981812,271.928619 543.889587,280.541595 
	C603.442749,253.730698 662.420898,227.178650 721.564453,200.552155 
	C731.768860,217.143616 741.798645,233.451111 751.991577,250.023895 
	C768.122925,242.758667 783.905945,235.650299 799.863037,228.463516 
	C793.371216,206.856750 787.152405,185.617477 780.497986,164.515564 
	C779.315552,160.766022 776.842529,157.078873 774.067871,154.240341 
	C765.586792,145.564011 756.617126,137.367661 747.935791,128.883987 
	C740.904541,122.012825 733.898193,115.107590 727.125427,107.984871 
	C724.697937,105.431831 722.758057,104.855865 719.486877,106.497368 
	C711.940002,110.284470 704.288574,113.927864 696.437439,117.013504 
	C693.069702,118.337105 693.162109,119.594864 694.057129,122.505707 
	C698.962097,138.458237 703.491272,154.527283 708.493408,170.448257 
	C709.553101,173.820999 708.356140,174.954666 705.769714,176.088928 
	C701.067566,178.150986 696.409790,180.314209 691.086853,182.842697 
z"/>
<path fill="#FDFDFE" opacity="1.000000" stroke="none" 
	d="
M923.999634,491.569153 
	C844.707581,491.569122 765.915649,491.569122 686.777588,491.569122 
	C686.777588,485.764618 686.777588,480.361938 686.777588,474.248413 
	C692.576660,474.248413 698.381042,473.780396 704.073669,474.377533 
	C709.989868,474.998108 714.219910,472.539246 718.169861,468.816132 
	C737.010986,451.057190 753.420654,431.400574 765.259949,408.208710 
	C766.990173,404.819397 768.427246,401.279144 769.949402,397.786682 
	C770.124634,397.384552 769.973145,396.839996 769.973145,395.699921 
	C750.866699,395.699921 731.825378,395.699921 712.248230,395.699921 
	C712.248230,385.769989 712.083069,376.486450 712.330261,367.213898 
	C712.427917,363.550171 711.268433,362.179443 707.640625,361.221436 
	C683.301819,354.794098 662.371277,342.236481 645.791931,323.429810 
	C637.887390,314.463409 632.064392,303.656891 625.372498,293.634491 
	C624.694641,292.619263 624.528015,291.262695 623.892090,289.376282 
	C653.597595,289.376282 682.661804,289.376282 712.108643,289.376282 
	C712.108643,282.566833 712.108643,276.290131 712.108643,269.634796 
	C789.370117,269.634796 866.242981,269.634796 943.751587,269.634796 
	C943.751587,277.225555 944.108398,284.853271 943.625610,292.427460 
	C943.306335,297.435699 945.189575,299.253326 949.825134,300.465881 
	C968.398010,305.324188 984.373108,315.183563 999.140198,327.166382 
	C1000.275024,328.087250 1001.171509,329.301666 1003.239746,331.514893 
	C988.884277,340.823608 975.018555,350.030060 960.902466,358.835144 
	C956.739746,361.431671 951.908142,362.990448 947.308228,364.838501 
	C944.609985,365.922516 943.612305,367.573517 943.684082,370.532776 
	C943.881226,378.661957 943.752075,386.799042 943.752075,395.559418 
	C922.625183,395.559418 901.893677,395.559418 879.670593,395.559418 
	C883.884338,404.157501 887.123413,411.928101 891.331177,419.132996 
	C903.530029,440.020935 920.292297,456.917816 939.111267,471.840424 
	C940.990967,473.330902 943.913818,474.044708 946.390930,474.142181 
	C953.864197,474.436218 961.356445,474.248322 969.203613,474.248322 
	C969.203613,479.944000 969.203613,485.361816 969.203613,491.569153 
	C954.339600,491.569153 939.419617,491.569153 923.999634,491.569153 
z"/>
<path fill="#FBFCFE" opacity="1.000000" stroke="none" 
	d="
M691.410156,182.638947 
	C696.409790,180.314209 701.067566,178.150986 705.769714,176.088928 
	C708.356140,174.954666 709.553101,173.820999 708.493408,170.448257 
	C703.491272,154.527283 698.962097,138.458237 694.057129,122.505707 
	C693.162109,119.594864 693.069702,118.337105 696.437439,117.013504 
	C704.288574,113.927864 711.940002,110.284470 719.486877,106.497368 
	C722.758057,104.855865 724.697937,105.431831 727.125427,107.984871 
	C733.898193,115.107590 740.904541,122.012825 747.935791,128.883987 
	C756.617126,137.367661 765.586792,145.564011 774.067871,154.240341 
	C776.842529,157.078873 779.315552,160.766022 780.497986,164.515564 
	C787.152405,185.617477 793.371216,206.856750 799.863037,228.463516 
	C783.905945,235.650299 768.122925,242.758667 751.991577,250.023895 
	C741.798645,233.451111 731.768860,217.143616 721.564453,200.552155 
	C662.420898,227.178650 603.442749,253.730698 543.889587,280.541595 
	C539.981812,271.928619 536.125366,263.428650 532.028748,254.399277 
	C538.358215,251.436752 544.431458,248.500031 550.580933,245.732803 
	C572.770752,235.747589 594.982239,225.810516 617.193115,215.872147 
	C641.820007,204.852676 666.455261,193.851715 691.410156,182.638947 
z"/>
<path fill="#F9FBFD" opacity="1.000000" stroke="none" 
	d="
M813.596802,247.210663 
	C819.131287,230.935471 824.653625,214.656128 830.204895,198.386658 
	C833.462952,188.838394 836.731018,179.293060 840.102478,169.784668 
	C840.465576,168.760635 841.549622,167.992249 842.299255,167.105286 
	C842.794495,168.035049 843.491089,168.911758 843.752380,169.903168 
	C845.474609,176.438324 847.080322,183.004135 848.783020,189.544601 
	C849.096680,190.749390 849.679016,191.884216 850.664856,194.394974 
	C874.838867,155.985840 898.382629,118.578033 921.926453,81.170227 
	C922.517639,81.341080 923.108887,81.511940 923.700134,81.682793 
	C917.399597,109.981728 911.099121,138.280670 904.798645,166.579605 
	C905.080139,166.989853 905.361694,167.400101 905.643250,167.810349 
	C927.868713,156.050629 950.094177,144.290909 972.319641,132.531174 
	C972.730225,133.017639 973.140869,133.504105 973.551453,133.990555 
	C959.221680,154.652573 944.891907,175.314575 929.767395,197.122452 
	C952.529785,197.813980 974.136292,198.470398 995.742859,199.126816 
	C995.817993,199.411972 995.893127,199.697144 995.968323,199.982300 
	C956.096008,215.962631 916.223694,231.942978 875.547729,248.245422 
	C875.547729,238.433792 875.547729,229.376938 875.547729,219.357040 
	C872.482117,220.472412 870.181458,221.117142 868.046814,222.116486 
	C850.938171,230.126297 833.863159,238.207932 816.766296,246.243042 
	C816.029785,246.589157 815.180298,246.695099 814.020996,247.006409 
	C813.658447,247.099869 813.596802,247.210663 813.596802,247.210663 
z"/>
<path fill="#F9FBFD" opacity="1.000000" stroke="none" 
	d="
M813.623596,247.046906 
	C813.588745,246.993958 813.911682,247.179611 813.911682,247.179611 
	C813.911682,247.179611 813.703674,246.909027 813.650269,247.059845 
	C813.596802,247.210663 813.658447,247.099869 813.623596,247.046906 
z"/>
</svg>

<svg viewBox="0 0 1536 512" xmlns="http://www.w3.org/2000/svg">
<path d="m1110 513h-1108.9v-511.9h1535.9v511.9h-426.97m-295.62-266.09c0.79681-0.21783 1.6463-0.32378 2.3828-0.66989 17.097-8.0351 34.172-16.117 51.281-24.127 2.1346-0.99934 4.4353-1.6441 7.5009-2.7594v28.888c40.676-16.302 80.548-32.283 120.42-48.263-0.075196-0.28516-0.15033-0.57033-0.22546-0.85548-21.607-0.65642-43.213-1.3128-65.975-2.0044 15.125-21.808 29.454-42.47 43.784-63.132-0.41058-0.48645-0.82123-0.97292-1.2318-1.4594-22.225 11.76-44.451 23.519-66.676 35.279-0.28156-0.41025-0.56311-0.8205-0.8446-1.2307 6.3005-28.299 12.601-56.598 18.901-84.897-0.59125-0.17085-1.1825-0.34171-1.7737-0.51257-23.544 37.408-47.088 74.816-71.262 113.22-0.98584-2.5108-1.5682-3.6456-1.8818-4.8504-1.7027-6.5405-3.3084-13.106-5.0306-19.641-0.26129-0.99141-0.95788-1.8681-1.4531-2.7979-0.74963 0.88698-1.8337 1.6554-2.1968 2.6794-3.3715 9.5084-6.6395 19.054-9.8976 28.602-5.5513 16.269-11.074 32.549-16.501 48.522 0 0 0.20801 0.27058 0.20801 0.27058s-0.32294-0.18565 0.4718-0.26668m110.12 244.66h44.704v-17.321c-7.8472 0-15.339 0.1879-22.813-0.10614-2.4771-0.097473-5.4-0.81128-7.2797-2.3018-18.819-14.923-35.581-31.819-47.78-52.707-4.2078-7.2049-7.4468-14.975-11.661-23.574h64.081c0-8.7604 0.12915-16.897-0.067993-25.027-0.071777-2.9593 0.9259-4.6103 3.6241-5.6943 4.5999-1.8481 9.4315-3.4068 13.594-6.0034 14.116-8.8051 27.982-18.012 42.337-27.32-2.0682-2.2132-2.9647-3.4276-4.0995-4.3485-14.767-11.983-30.742-21.842-49.315-26.701-4.6356-1.2126-6.5188-3.0302-6.1995-8.0384 0.48279-7.5742 0.12598-15.202 0.12598-22.793h-231.64v19.741h-88.217c0.63592 1.8864 0.80255 3.243 1.4804 4.2582 6.6919 10.022 12.515 20.829 20.419 29.795 16.579 18.807 37.51 31.364 61.849 37.792 3.6278 0.95801 4.7873 2.3287 4.6896 5.9925-0.24719 9.2726-0.082031 18.556-0.082031 28.486h57.725c0 1.1401 0.15149 1.6846-0.023743 2.0868-1.5222 3.4925-2.9592 7.0327-4.6895 10.422-11.839 23.192-28.249 42.848-47.09 60.607-3.95 3.7231-8.18 6.182-14.096 5.5614-5.6926-0.59714-11.497-0.12912-17.296-0.12912v17.321c79.138 0 157.93 0 237.72 3.1e-5m-233.41-308.73c-24.632 11.009-49.267 22.01-73.894 33.029-22.211 9.9384-44.422 19.875-66.612 29.861-6.1495 2.7672-12.223 5.7039-18.552 8.6665 4.0966 9.0294 7.9531 17.529 11.861 26.142 59.553-26.811 118.53-53.363 177.67-79.989 10.204 16.591 20.234 32.899 30.427 49.472 16.131-7.2652 31.914-14.374 47.871-21.56-6.4918-21.607-12.711-42.846-19.365-63.948-1.1824-3.7495-3.6555-7.4367-6.4301-10.275-8.4811-8.6763-17.451-16.873-26.132-25.356-7.0312-6.8712-14.038-13.776-20.81-20.899-2.4275-2.553-4.3674-3.129-7.6386-1.4875-7.5469 3.7871-15.198 7.4305-23.049 10.516-3.3677 1.3236-3.2753 2.5814-2.3803 5.4922 4.905 15.953 9.4341 32.022 14.436 47.943 1.0597 3.3727-0.13727 4.5064-2.7237 5.6407-4.7021 2.0621-9.3599 4.2253-14.683 6.7538z" fill="#005EB8"/>
<path d="m924 491.57c-79.292-3.1e-5 -158.08-3.1e-5 -237.22-3.1e-5v-17.321c5.7991 0 11.603-0.46802 17.296 0.12912 5.9162 0.62058 10.146-1.8383 14.096-5.5614 18.841-17.759 35.251-37.416 47.09-60.607 1.7302-3.3893 3.1673-6.9296 4.6895-10.422 0.17523-0.40213 0.023743-0.94669 0.023743-2.0868h-57.725c0-9.9299-0.16516-19.213 0.082031-28.486 0.097656-3.6637-1.0618-5.0345-4.6896-5.9925-24.339-6.4273-45.269-18.985-61.849-37.792-7.9045-8.9664-13.728-19.773-20.419-29.795-0.67786-1.0152-0.84448-2.3718-1.4804-4.2582h88.217v-19.741h231.64c0 7.5908 0.35681 15.218-0.12598 22.793-0.31928 5.0082 1.564 6.8259 6.1995 8.0384 18.573 4.8583 34.548 14.718 49.315 26.701 1.1348 0.92087 2.0313 2.1353 4.0995 4.3485-14.355 9.3087-28.221 18.515-42.337 27.32-4.1627 2.5965-8.9943 4.1553-13.594 6.0034-2.6982 1.084-3.6959 2.735-3.6241 5.6943 0.19714 8.1292 0.067993 16.266 0.067993 25.027h-64.081c4.2137 8.5981 7.4528 16.369 11.661 23.574 12.199 20.888 28.961 37.785 47.78 52.707 1.8797 1.4905 4.8026 2.2043 7.2797 2.3018 7.4733 0.29404 14.966 0.10614 22.813 0.10614v17.321h-45.204z" fill="#FDFDFE"/>
<path d="m691.41 182.64c4.9996-2.3247 9.6574-4.488 14.36-6.55 2.5864-1.1343 3.7834-2.2679 2.7237-5.6407-5.0021-15.921-9.5313-31.99-14.436-47.943-0.89502-2.9108-0.98743-4.1686 2.3803-5.4922 7.8511-3.0856 15.503-6.729 23.049-10.516 3.2712-1.6415 5.2111-1.0655 7.6386 1.4875 6.7728 7.1227 13.779 14.028 20.81 20.899 8.6813 8.4837 17.651 16.68 26.132 25.356 2.7747 2.8385 5.2477 6.5257 6.4301 10.275 6.6544 21.102 12.873 42.341 19.365 63.948-15.957 7.1868-31.74 14.295-47.871 21.56-10.193-16.573-20.223-32.88-30.427-49.472-59.144 26.626-118.12 53.179-177.67 79.989-3.9078-8.613-7.7642-17.113-11.861-26.142 6.3295-2.9625 12.403-5.8992 18.552-8.6665 22.19-9.9852 44.401-19.922 66.612-29.861 24.627-11.019 49.262-22.02 74.217-33.233z" fill="#FBFCFE"/>
<path d="m813.6 247.21c5.5345-16.275 11.057-32.555 16.608-48.824 3.2581-9.5483 6.5261-19.094 9.8976-28.602 0.3631-1.024 1.4471-1.7924 2.1968-2.6794 0.49524 0.92976 1.1918 1.8065 1.4531 2.7979 1.7222 6.5352 3.3279 13.101 5.0306 19.641 0.31366 1.2048 0.896 2.3396 1.8818 4.8504 24.174-38.409 47.718-75.817 71.262-113.22 0.59119 0.17085 1.1824 0.34171 1.7737 0.51257-6.3005 28.299-12.601 56.598-18.901 84.897 0.28149 0.41025 0.56305 0.8205 0.8446 1.2307 22.225-11.76 44.451-23.519 66.676-35.279 0.41058 0.48646 0.82123 0.97293 1.2318 1.4594-14.33 20.662-28.66 41.324-43.784 63.132 22.762 0.69153 44.369 1.3479 65.975 2.0044 0.075134 0.28516 0.15027 0.57033 0.22546 0.85548-39.872 15.98-79.745 31.961-120.42 48.263v-28.888c-3.0656 1.1154-5.3663 1.7601-7.5009 2.7594-17.109 8.0098-34.184 16.091-51.281 24.127-0.73651 0.34612-1.586 0.45206-2.7453 0.76337-0.36255 0.09346-0.42419 0.20425-0.42419 0.20425z" fill="#F9FBFD"/>
<path d="m813.62 247.05c-0.034851-0.052948 0.28809 0.1327 0.28809 0.1327s-0.20801-0.27058-0.26141-0.11977c-0.053467 0.15082 0.008178 0.040024-0.026673-0.012939z" fill="#F9FBFD"/>
</svg>
